src/assets/flags/ai.svg

<?xml version="1.0" encoding="UTF-8"?>
<svg xmlns="http://www.w3.org/2000/svg" xmlns:xlink="http://www.w3.org/1999/xlink" width="25px" height="px" viewBox="0 0 25 19" version="1.1">
<defs>
<clipPath id="clip1">
  <path d="M 0 0 L 13 0 L 13 10 L 0 10 Z M 0 0 "/>
</clipPath>
<clipPath id="clip2">
  <path d="M 0 0 L 0 4.75 L 14.582031 4.75 L 14.582031 9.5 L 12.5 9.5 Z M 12.5 0 L 6.25 0 L 6.25 11.082031 L 0 11.082031 L 0 9.5 Z M 12.5 0 "/>
</clipPath>
<clipPath id="clip3">
  <path d="M 0 0 L 15 0 L 15 12 L 0 12 Z M 0 0 "/>
</clipPath>
<clipPath id="clip4">
  <path d="M 0 0 L 0 4.75 L 14.582031 4.75 L 14.582031 9.5 L 12.5 9.5 Z M 12.5 0 L 6.25 0 L 6.25 11.082031 L 0 11.082031 L 0 9.5 Z M 12.5 0 "/>
</clipPath>
</defs>
<g id="surface1">
<rect x="0" y="0" width="25" height="19" style="fill:rgb(0.392157%,12.941177%,41.176471%);fill-opacity:1;stroke:none;"/>
<path style="fill-rule:nonzero;fill:rgb(0%,0%,0%);fill-opacity:1;stroke-width:50;stroke-linecap:butt;stroke-linejoin:miter;stroke:rgb(100%,100%,100%);stroke-opacity:1;stroke-miterlimit:4;" d="M 0 0 L 320 240 M 320 0 L 0 240 " transform="matrix(0.0390625,0,0,0.0395833,0,0)"/>
<g clip-path="url(#clip1)" clip-rule="nonzero">
<g clip-path="url(#clip2)" clip-rule="nonzero">
<path style=" stroke:none;fill-rule:nonzero;fill:rgb(0%,0%,0%);fill-opacity:1;" d="M 0 0 L 12.5 9.5 M 12.5 0 L 0 9.5 "/>
</g>
</g>
<g clip-path="url(#clip3)" clip-rule="nonzero">
<g clip-path="url(#clip4)" clip-rule="nonzero">
<path style="fill:none;stroke-width:30;stroke-linecap:butt;stroke-linejoin:miter;stroke:rgb(78.431374%,6.27451%,18.039216%);stroke-opacity:1;stroke-miterlimit:4;" d="M 0 0 L 320 240 M 320 0 L 0 240 " transform="matrix(0.0390625,0,0,0.0395833,0,0)"/>
</g>
</g>
<path style="fill-rule:nonzero;fill:rgb(0%,0%,0%);fill-opacity:1;stroke-width:75;stroke-linecap:butt;stroke-linejoin:miter;stroke:rgb(100%,100%,100%);stroke-opacity:1;stroke-miterlimit:4;" d="M 160 0 L 160 279.967105 M 0 120 L 373.3 120 " transform="matrix(0.0390625,0,0,0.0395833,0,0)"/>
<path style="fill-rule:nonzero;fill:rgb(0%,0%,0%);fill-opacity:1;stroke-width:50;stroke-linecap:butt;stroke-linejoin:miter;stroke:rgb(78.431374%,6.27451%,18.039216%);stroke-opacity:1;stroke-miterlimit:4;" d="M 160 0 L 160 279.967105 M 0 120 L 373.3 120 " transform="matrix(0.0390625,0,0,0.0395833,0,0)"/>
<path style=" stroke:none;fill-rule:nonzero;fill:rgb(0.392157%,12.941177%,41.176471%);fill-opacity:1;" d="M 0 9.5 L 12.5 9.5 L 12.5 0 L 16.667969 0 L 16.667969 12.667969 L 0 12.667969 Z M 0 9.5 "/>
<path style=" stroke:none;fill-rule:nonzero;fill:rgb(100%,100%,100%);fill-opacity:1;" d="M 16.5625 7.59375 C 16.5625 11.171875 16.941406 12.402344 17.707031 13.234375 C 18.109375 13.6875 18.570312 14.085938 19.074219 14.421875 C 19.578125 14.085938 20.039062 13.6875 20.441406 13.234375 C 21.203125 12.402344 21.585938 11.171875 21.585938 7.59375 C 21.03125 7.847656 20.714844 7.976562 20.257812 7.96875 C 19.84375 7.925781 19.4375 7.796875 19.074219 7.59375 C 18.710938 7.796875 18.304688 7.925781 17.890625 7.96875 C 17.433594 7.976562 17.117188 7.847656 16.5625 7.59375 "/>
<path style=" stroke:none;fill-rule:nonzero;fill:rgb(100%,60.000002%,0%);fill-opacity:1;" d="M 19.15625 9.382812 C 19.269531 9.667969 19.652344 9.988281 19.75 10.144531 C 19.621094 10.304688 19.597656 10.289062 19.613281 10.574219 C 19.84375 10.328125 19.84375 10.296875 19.996094 10.335938 C 20.320312 10.667969 20.058594 11.390625 19.78125 11.546875 C 19.523438 11.714844 19.566406 11.546875 19.171875 11.753906 C 19.347656 11.914062 19.558594 11.730469 19.738281 11.777344 C 19.828125 11.894531 19.691406 12.101562 19.765625 12.308594 C 19.921875 12.292969 19.90625 11.96875 19.9375 11.847656 C 20.050781 11.421875 20.730469 11.128906 20.761719 10.730469 C 20.90625 10.660156 21.046875 10.707031 21.222656 10.8125 C 21.136719 10.445312 20.847656 10.445312 20.769531 10.335938 C 20.585938 10.042969 20.425781 9.71875 20.035156 9.621094 C 19.746094 9.566406 19.765625 9.644531 19.574219 9.511719 C 19.453125 9.414062 19.09375 9.242188 19.15625 9.382812 "/>
<path style=" stroke:none;fill-rule:evenodd;fill:rgb(100%,100%,100%);fill-opacity:1;" d="M 20.003906 9.710938 C 20.003906 9.675781 19.976562 9.644531 19.941406 9.644531 C 19.910156 9.644531 19.882812 9.675781 19.882812 9.710938 C 19.882812 9.742188 19.910156 9.773438 19.941406 9.773438 C 19.976562 9.773438 20.003906 9.742188 20.003906 9.710938 Z M 20.003906 9.710938 "/>
<path style=" stroke:none;fill-rule:nonzero;fill:rgb(100%,60.000002%,0%);fill-opacity:1;" d="M 18.199219 10.609375 C 18.390625 10.371094 18.484375 9.871094 18.570312 9.707031 C 18.769531 9.75 18.765625 9.78125 19 9.632812 C 18.683594 9.535156 18.65625 9.550781 18.621094 9.394531 C 18.753906 8.941406 19.492188 8.84375 19.753906 9.023438 C 20.019531 9.183594 19.855469 9.21875 20.21875 9.488281 C 20.269531 9.25 20.015625 9.140625 19.972656 8.957031 C 20.03125 8.816406 20.273438 8.847656 20.414062 8.679688 C 20.328125 8.550781 20.058594 8.714844 19.941406 8.742188 C 19.523438 8.835938 18.953125 8.351562 18.601562 8.507812 C 18.472656 8.40625 18.449219 8.257812 18.453125 8.050781 C 18.179688 8.296875 18.316406 8.5625 18.257812 8.683594 C 18.09375 8.992188 17.890625 9.289062 17.992188 9.691406 C 18.082031 9.984375 18.136719 9.925781 18.113281 10.164062 C 18.089844 10.320312 18.105469 10.730469 18.199219 10.609375 "/>
<path style=" stroke:none;fill-rule:evenodd;fill:rgb(100%,100%,100%);fill-opacity:1;" d="M 18.082031 9.679688 C 18.050781 9.695312 18.039062 9.734375 18.054688 9.765625 C 18.070312 9.792969 18.109375 9.808594 18.136719 9.789062 C 18.167969 9.773438 18.179688 9.734375 18.164062 9.703125 C 18.148438 9.671875 18.109375 9.660156 18.082031 9.679688 Z M 18.082031 9.679688 "/>
<path style=" stroke:none;fill-rule:nonzero;fill:rgb(100%,60.000002%,0%);fill-opacity:1;" d="M 19.746094 10.773438 C 19.453125 10.726562 18.992188 10.902344 18.808594 10.910156 C 18.746094 10.714844 18.769531 10.699219 18.527344 10.566406 C 18.609375 10.898438 18.636719 10.914062 18.527344 11.03125 C 18.085938 11.144531 17.621094 10.542969 17.632812 10.214844 C 17.628906 9.898438 17.742188 10.023438 17.777344 9.566406 C 17.554688 9.640625 17.59375 9.925781 17.464844 10.054688 C 17.320312 10.078125 17.21875 9.847656 17.011719 9.808594 C 16.945312 9.953125 17.222656 10.105469 17.304688 10.195312 C 17.597656 10.519531 17.492188 11.273438 17.804688 11.503906 C 17.789062 11.671875 17.675781 11.769531 17.5 11.871094 C 17.847656 11.984375 17.996094 11.726562 18.128906 11.714844 C 18.464844 11.703125 18.816406 11.726562 19.097656 11.429688 C 19.292969 11.203125 19.214844 11.179688 19.425781 11.082031 C 19.566406 11.019531 19.898438 10.792969 19.746094 10.773438 "/>
<path style=" stroke:none;fill-rule:evenodd;fill:rgb(100%,100%,100%);fill-opacity:1;" d="M 19.039062 11.359375 C 19.070312 11.375 19.105469 11.367188 19.125 11.335938 C 19.140625 11.308594 19.132812 11.269531 19.101562 11.25 C 19.074219 11.230469 19.035156 11.242188 19.019531 11.273438 C 19 11.300781 19.011719 11.339844 19.039062 11.359375 Z M 19.039062 11.359375 "/>
<path style=" stroke:none;fill-rule:nonzero;fill:rgb(60.000002%,80.000001%,100%);fill-opacity:1;" d="M 17.1875 12.472656 C 17.320312 12.75 17.496094 13.007812 17.707031 13.234375 C 18.109375 13.6875 18.570312 14.085938 19.074219 14.421875 C 19.578125 14.085938 20.039062 13.6875 20.441406 13.234375 C 20.648438 13.007812 20.824219 12.75 20.957031 12.472656 Z M 17.1875 12.472656 "/>
<path style=" stroke:none;fill-rule:nonzero;fill:rgb(99.215686%,76.47059%,0.392157%);fill-opacity:1;" d="M 16.453125 7.449219 C 16.453125 11.179688 16.851562 12.460938 17.648438 13.328125 C 18.070312 13.796875 18.546875 14.210938 19.074219 14.558594 C 19.597656 14.210938 20.078125 13.796875 20.496094 13.328125 C 21.292969 12.460938 21.691406 11.179688 21.691406 7.449219 C 21.113281 7.71875 20.78125 7.847656 20.304688 7.84375 C 19.875 7.832031 19.421875 7.621094 19.074219 7.449219 C 18.722656 7.621094 18.269531 7.832031 17.84375 7.84375 C 17.363281 7.847656 17.035156 7.71875 16.453125 7.449219 M 16.609375 7.648438 C 17.15625 7.90625 17.46875 8.027344 17.917969 8.019531 C 18.324219 7.976562 18.71875 7.851562 19.074219 7.648438 C 19.402344 7.804688 19.828125 8.011719 20.230469 8.019531 C 20.679688 8.027344 20.988281 7.902344 21.535156 7.648438 C 21.535156 11.171875 21.160156 12.382812 20.410156 13.195312 C 20.015625 13.640625 19.566406 14.03125 19.074219 14.359375 C 18.582031 14.03125 18.128906 13.640625 17.734375 13.195312 C 16.984375 12.382812 16.613281 11.167969 16.613281 7.648438 Z M 16.609375 7.648438 "/>
</g>
</svg>

<svg xmlns="http://www.w3.org/2000/svg" width="25" height="px" viewBox="0 0 25 19"><defs><clipPath id="a"><path d="M0 0h13v10H0Zm0 0"/></clipPath><clipPath id="b"><path d="M0 0v4.75h14.582V9.5H12.5Zm12.5 0H6.25v11.082H0V9.5Zm0 0"/></clipPath><clipPath id="c"><path d="M0 0h15v12H0Zm0 0"/></clipPath><clipPath id="d"><path d="M0 0v4.75h14.582V9.5H12.5Zm12.5 0H6.25v11.082H0V9.5Zm0 0"/></clipPath></defs><path d="M0 0h25v19H0z" style="fill:#012169;fill-opacity:1;stroke:none"/><path d="m0 0 320 240m0-240L0 240" style="fill-rule:nonzero;fill:#000;fill-opacity:1;stroke-width:50;stroke-linecap:butt;stroke-linejoin:miter;stroke:#fff;stroke-opacity:1;stroke-miterlimit:4" transform="scale(.03906 .03958)"/><g clip-path="url(#a)"><g clip-path="url(#b)"><path d="m0 0 12.5 9.5m0-9.5L0 9.5" style="stroke:none;fill-rule:nonzero;fill:#000;fill-opacity:1"/></g></g><g clip-path="url(#c)"><g clip-path="url(#d)"><path d="m0 0 320 240m0-240L0 240" style="fill:none;stroke-width:30;stroke-linecap:butt;stroke-linejoin:miter;stroke:#c8102e;stroke-opacity:1;stroke-miterlimit:4" transform="scale(.03906 .03958)"/></g></g><path d="M160 0v279.967M0 120h373.3" style="fill-rule:nonzero;fill:#000;fill-opacity:1;stroke-width:75;stroke-linecap:butt;stroke-linejoin:miter;stroke:#fff;stroke-opacity:1;stroke-miterlimit:4" transform="scale(.03906 .03958)"/><path d="M160 0v279.967M0 120h373.3" style="fill-rule:nonzero;fill:#000;fill-opacity:1;stroke-width:50;stroke-linecap:butt;stroke-linejoin:miter;stroke:#c8102e;stroke-opacity:1;stroke-miterlimit:4" transform="scale(.03906 .03958)"/><path d="M0 9.5h12.5V0h4.168v12.668H0Zm0 0" style="stroke:none;fill-rule:nonzero;fill:#012169;fill-opacity:1"/><path d="M16.563 7.594c0 3.578.378 4.808 1.144 5.64.402.454.863.852 1.367 1.188a7 7 0 0 0 1.367-1.188c.762-.832 1.145-2.062 1.145-5.64-.555.254-.871.383-1.328.375a3.1 3.1 0 0 1-1.184-.375 3.1 3.1 0 0 1-1.183.375c-.457.008-.774-.121-1.328-.375" style="stroke:none;fill-rule:nonzero;fill:#fff;fill-opacity:1"/><path d="M19.156 9.383c.114.285.496.605.594.762-.129.16-.152.144-.137.43.23-.247.23-.278.383-.24.324.333.063 1.056-.215 1.212-.258.168-.215 0-.61.207.177.16.388-.024.567.023.09.118-.047.325.028.532.156-.016.14-.34.172-.461.113-.426.792-.72.824-1.118.144-.07.285-.023.46.082-.085-.367-.374-.367-.452-.476-.184-.293-.344-.617-.735-.715-.289-.055-.27.024-.46-.11-.122-.097-.481-.269-.419-.128" style="stroke:none;fill-rule:nonzero;fill:#f90;fill-opacity:1"/><path d="M20.004 9.71c0-.034-.027-.065-.063-.065-.03 0-.058.03-.058.066 0 .031.027.062.058.062a.064.064 0 0 0 .063-.062m0 0" style="stroke:none;fill-rule:evenodd;fill:#fff;fill-opacity:1"/><path d="M18.2 10.61c.19-.239.284-.739.37-.903.2.043.196.074.43-.074-.316-.098-.344-.082-.379-.238.133-.454.871-.551 1.133-.372.266.16.101.196.465.465.05-.238-.203-.347-.246-.531.058-.14.3-.11.441-.277-.086-.13-.355.035-.473.062-.418.094-.988-.39-1.34-.234-.128-.102-.152-.25-.148-.457-.273.246-.137.511-.195.633-.164.308-.367.605-.266 1.007.09.293.145.235.121.473-.023.156-.008.566.086.445" style="stroke:none;fill-rule:nonzero;fill:#f90;fill-opacity:1"/><path d="M18.082 9.68a.064.064 0 0 0-.027.086c.015.027.054.043.082.023a.064.064 0 0 0 .027-.086c-.016-.031-.055-.043-.082-.023m0 0" style="stroke:none;fill-rule:evenodd;fill:#fff;fill-opacity:1"/><path d="M19.746 10.773c-.293-.046-.754.13-.937.137-.063-.195-.04-.21-.282-.344.082.332.11.348 0 .465-.441.114-.906-.488-.894-.816-.004-.317.11-.192.144-.649-.222.075-.183.36-.312.489-.145.023-.246-.207-.453-.246-.067.144.21.296.293.386.293.325.187 1.078.5 1.309-.016.168-.13.266-.305.367.348.113.496-.144.629-.156.336-.012.687.012.969-.285.195-.227.117-.25.328-.348.14-.062.472-.289.32-.309" style="stroke:none;fill-rule:nonzero;fill:#f90;fill-opacity:1"/><path d="M19.04 11.36a.064.064 0 0 0 .085-.024.065.065 0 0 0-.023-.086c-.028-.02-.067-.008-.082.023-.02.028-.008.067.02.086m0 0" style="stroke:none;fill-rule:evenodd;fill:#fff;fill-opacity:1"/><path d="M17.188 12.473c.132.277.308.535.519.761.402.454.863.852 1.367 1.188a7 7 0 0 0 1.367-1.188c.207-.226.383-.484.516-.761Zm0 0" style="stroke:none;fill-rule:nonzero;fill:#9cf;fill-opacity:1"/><path d="M16.453 7.45c0 3.73.399 5.01 1.195 5.878.422.469.899.883 1.426 1.23a7.4 7.4 0 0 0 1.422-1.23c.797-.867 1.195-2.148 1.195-5.879-.578.27-.91.399-1.386.395-.43-.012-.883-.223-1.23-.395-.352.172-.805.383-1.231.395-.48.004-.809-.125-1.39-.395m.155.2c.547.257.86.378 1.309.37.406-.042.8-.167 1.156-.37.328.156.754.363 1.156.37.45.008.758-.117 1.305-.37 0 3.523-.375 4.734-1.125 5.546a7 7 0 0 1-1.336 1.164 7 7 0 0 1-1.34-1.164c-.75-.812-1.12-2.027-1.12-5.547Zm0 0" style="stroke:none;fill-rule:nonzero;fill:#fdc301;fill-opacity:1"/></svg>
